X: 1187
T:Ben Lennon's
M:4/4
L:1/8
S:Dermy Diamond, Belfast (fiddle)
R:Reel
H:G version of an tune in A associated with Ben Lennon
D:Session Tape - Kitchen Bar, Belfast 198
N:As played
Z:Bernie Stocks
K:G
GECE D2B,D | G,3c BcBA | GECE (3.D.E.DB,D | G,3c BcBA :: GB~B2 GBde |dBdg eceg |\
dB~B2 BcdB | cABc ABce | dB~B2 Bcd2 | dBdg e3g | {a}g2fg efge | dB~B2 cBcA :|
